svg/fluentui-system-icons/ic_fluent_people_community_add_28_regular.svg

<svg width="28" height="28" viewBox="0 0 28 28" fill="none" xmlns="http://www.w3.org/2000/svg">
<path d="M8.5 2.5C7.25734 2.5 6.25 3.50735 6.25 4.74993C6.25 5.99252 7.25734 6.99987 8.5 6.99987C9.74266 6.99987 10.75 5.99252 10.75 4.74993C10.75 3.50735 9.74266 2.5 8.5 2.5ZM4.75 4.74993C4.75 2.67889 6.42895 1 8.5 1C10.5711 1 12.25 2.67889 12.25 4.74993C12.25 6.82098 10.5711 8.49987 8.5 8.49987C6.42895 8.49987 4.75 6.82098 4.75 4.74993ZM2 11.9821C2 10.8874 2.88743 10 3.98213 10H9.58274C9.39715 10.4681 9.2838 10.9727 9.25646 11.5H3.98213C3.71586 11.5 3.5 11.7159 3.5 11.9821V12.375C3.5 12.5466 3.5024 13.5885 4.10749 14.5718C4.62691 15.4158 5.66051 16.3305 7.8604 16.4791C7.35532 16.807 6.95572 17.2837 6.72365 17.847C4.71865 17.4756 3.51729 16.4748 2.83001 15.3579C1.99995 14.0091 1.99999 12.6175 2 12.377V11.9821ZM18.4173 10C18.6029 10.4681 18.7162 10.9727 18.7435 11.5H24.0179C24.2841 11.5 24.5 11.7159 24.5 11.9821V12.375C24.5 12.5116 24.4985 13.1996 24.1927 13.9705C24.6395 14.2238 25.0578 14.5216 25.4414 14.8578C26 13.6825 26 12.5877 26 12.377V11.9821C26 10.8874 25.1126 10 24.0179 10H18.4173ZM17.75 11.7499C17.75 12.5019 17.5287 13.2021 17.1476 13.7891C16.3572 14.1847 15.6464 14.7159 15.0457 15.3521C14.7138 15.4483 14.3629 15.4999 14 15.4999C11.9289 15.4999 10.25 13.821 10.25 11.7499C10.25 9.67889 11.9289 8 14 8C16.0711 8 17.75 9.67889 17.75 11.7499ZM9.48213 17H13.865C13.6153 17.4724 13.4146 17.9746 13.2696 18.5H9.48213C9.21586 18.5 9 18.7159 9 18.9821V19.375C9 19.5466 9.00239 20.5885 9.60749 21.5718C10.147 22.4485 11.2412 23.4014 13.6209 23.4928C13.8536 24.0269 14.1467 24.5286 14.4915 24.9894C14.3317 24.9964 14.1679 25 14 25C10.8943 25 9.20014 23.7719 8.33001 22.3579C7.49995 21.0091 7.49999 19.6175 7.5 19.377V18.9821C7.5 17.8874 8.38743 17 9.48213 17ZM19.5 2.5C18.2573 2.5 17.25 3.50735 17.25 4.74993C17.25 5.99252 18.2573 6.99987 19.5 6.99987C20.7427 6.99987 21.75 5.99252 21.75 4.74993C21.75 3.50735 20.7427 2.5 19.5 2.5ZM15.75 4.74993C15.75 2.67889 17.4289 1 19.5 1C21.5711 1 23.25 2.67889 23.25 4.74993C23.25 6.82098 21.5711 8.49987 19.5 8.49987C17.4289 8.49987 15.75 6.82098 15.75 4.74993ZM11.75 11.7499C11.75 12.9925 12.7573 13.9999 14 13.9999C15.2427 13.9999 16.25 12.9925 16.25 11.7499C16.25 10.5073 15.2427 9.5 14 9.5C12.7573 9.5 11.75 10.5073 11.75 11.7499ZM27 20.5C27 24.0899 24.0899 27 20.5 27C16.9101 27 14 24.0899 14 20.5C14 16.9101 16.9101 14 20.5 14C24.0899 14 27 16.9101 27 20.5ZM21 16.5C21 16.2239 20.7761 16 20.5 16C20.2239 16 20 16.2239 20 16.5V20H16.5C16.2239 20 16 20.2239 16 20.5C16 20.7761 16.2239 21 16.5 21H20V24.5C20 24.7761 20.2239 25 20.5 25C20.7761 25 21 24.7761 21 24.5V21H24.5C24.7761 21 25 20.7761 25 20.5C25 20.2239 24.7761 20 24.5 20H21V16.5Z" fill="#212121"/>
</svg>

<svg xmlns="http://www.w3.org/2000/svg" width="28" height="28"><path d="M8.5 2.5a2.25 2.25 0 1 0 0 4.5 2.25 2.25 0 0 0 0-4.5ZM4.75 4.75a3.75 3.75 0 1 1 7.5 0 3.75 3.75 0 0 1-7.5 0ZM2 11.982C2 10.887 2.887 10 3.982 10h5.6a4.728 4.728 0 0 0-.326 1.5H3.982a.482.482 0 0 0-.482.482v.393c0 .172.002 1.213.607 2.197.52.844 1.554 1.759 3.753 1.907a2.993 2.993 0 0 0-1.136 1.368c-2.005-.371-3.207-1.372-3.894-2.49C2 14.01 2 12.618 2 12.378v-.395ZM18.417 10c.186.468.3.973.326 1.5h5.275c.266 0 .482.216.482.482v.393c0 .137-.002.825-.307 1.595.447.254.865.552 1.248.888A5.909 5.909 0 0 0 26 12.377v-.395A1.982 1.982 0 0 0 24.018 10h-5.6Zm-.667 1.75c0 .752-.221 1.452-.602 2.04a7.525 7.525 0 0 0-2.102 1.562 3.75 3.75 0 1 1 2.704-3.602ZM9.482 17h4.383a7.45 7.45 0 0 0-.595 1.5H9.482a.482.482 0 0 0-.482.482v.393c0 .172.002 1.213.607 2.197.54.877 1.634 1.83 4.014 1.92.233.535.526 1.037.87 1.497-.16.007-.323.011-.491.011-3.106 0-4.8-1.228-5.67-2.642-.83-1.349-.83-2.74-.83-2.981v-.395C7.5 17.887 8.387 17 9.482 17ZM19.5 2.5a2.25 2.25 0 1 0 0 4.5 2.25 2.25 0 0 0 0-4.5Zm-3.75 2.25a3.75 3.75 0 1 1 7.5 0 3.75 3.75 0 0 1-7.5 0Zm-4 7a2.25 2.25 0 1 0 4.5 0 2.25 2.25 0 0 0-4.5 0ZM27 20.5a6.5 6.5 0 1 1-13 0 6.5 6.5 0 0 1 13 0Zm-6-4a.5.5 0 0 0-1 0V20h-3.5a.5.5 0 0 0 0 1H20v3.5a.5.5 0 0 0 1 0V21h3.5a.5.5 0 0 0 0-1H21v-3.5Z"/></svg>
